lib/brands/icons/vk.svg

<svg xmlns="http://www.w3.org/2000/svg" fill="none" aria-hidden="true" viewBox="0 0 48 48"><g id="vk-Icon"><rect id="bg" width="42" height="42" x="3" y="3" fill="#2789F6" rx="6"/><path id="vk" fill="white" d="M34.385 27.5011C34.0618 27.0627 33.9894 26.6189 34.1661 26.1692C34.6067 24.9694 41.0241 17.3492 38.3507 17.3492C36.5136 17.3736 34.3044 17.3492 32.5432 17.3492C32.2162 17.4288 32.0047 17.6004 31.8723 17.9495C30.8424 20.3242 29.5821 23.2222 27.7351 25.0847C27.4921 25.2806 27.3406 25.2723 27.0638 25.1998C25.7682 23.8358 27.1497 19.1626 26.3618 17.3161C26.2065 16.9546 25.8666 16.7914 25.5188 16.6994C23.7598 16.2802 19.7425 16.5298 19.0871 17.3736C18.8997 17.6148 18.8735 17.7465 19.0088 17.7681C19.6333 17.8667 20.0755 18.1024 20.3357 18.475C20.8266 19.556 21.1883 25.3146 19.7425 25.3146C18.2967 25.3146 15.9653 19.6632 15.3248 18.0965C15.1544 17.6248 14.7205 17.3544 14.2633 17.2746L9.98594 17.3073C9.23409 17.3073 8.81389 17.6781 9.08037 18.4254C11.3082 23.9554 16.1835 34.6746 23.6609 34.4062C24.4099 34.4062 25.6986 34.6938 26.2836 34.0444C27.0875 32.9778 26.107 31.0783 27.4856 30.3538C27.8333 30.1688 28.1936 30.3239 28.4923 30.5514C30.0257 31.7189 30.8399 33.7683 32.7309 34.3905C33.0634 34.5 33.3547 34.5274 33.6048 34.4726L37.601 34.407C38.343 34.407 39.0739 34.0769 38.9203 33.1899C38.3377 31.2877 36.0161 29.3325 34.385 27.5011Z"/></g></svg>

<svg xmlns="http://www.w3.org/2000/svg" fill="none" aria-hidden="true" viewBox="0 0 48 48"><rect width="42" height="42" x="3" y="3" fill="#2789F6" rx="6"/><path fill="#fff" d="M34.385 27.501c-.323-.438-.396-.882-.219-1.332.44-1.2 6.858-8.82 4.185-8.82-1.837.025-4.047 0-5.808 0-.327.08-.538.251-.67.6-1.03 2.375-2.29 5.273-4.138 7.136-.243.196-.394.187-.671.115-1.296-1.364.086-6.037-.702-7.884-.155-.361-.495-.525-.843-.617-1.76-.419-5.776-.17-6.432.675-.187.24-.213.373-.078.394.624.099 1.067.334 1.327.707.49 1.081.852 6.84-.593 6.84-1.446 0-3.778-5.652-4.418-7.219-.17-.471-.604-.742-1.062-.821l-4.277.032c-.752 0-1.172.371-.906 1.118 2.228 5.53 7.103 16.25 14.58 15.981.75 0 2.039.288 2.624-.362.803-1.066-.177-2.966 1.202-3.69.347-.185.708-.03 1.006.197 1.534 1.168 2.348 3.217 4.239 3.84.332.109.624.136.874.082l3.996-.066c.742 0 1.473-.33 1.32-1.217-.583-1.902-2.905-3.857-4.536-5.689Z"/></svg>
